X:1
T:Julie Ann Johnson
L:1/8
M:2/4
I:linebreak $
K:D
V:1 treble 
V:1
|:"D" fe dB |"D" dB A2 |"D" fa ab |"A" a4 |"D" fe dB |"D" dB A2 |"D" fe"G" dB |"A" A2"D" A2 :: %8
"G" B/dB/ d2 |"G" B/dB/ dd/B/ |$"D" B/dB/ dB |"D" A2 A2 |"G" B/dB/ dd/B/ |"G" B/dB/ de | %14
"D" fe"G" dB |"A" A2"D" A2 :| %16
